X:1
T:Lagrima
T:Lágrima
T:Preludio
T:Francisco Tárrega (1852-1909)
C:Francisco Tarrega (1852-1909)
%%score { ( 1 2 3 ) ( 4 5 6 ) }
L:1/8
Q:1/4=80
M:3/4
K:E
V:1 treble-8 nm="Guitare classique"
V:2 treble-8 
V:3 treble-8 
V:4 tab stafflines=6 strings=E2,A2,D3,G3,B3,E4 nostems nm="Guitare classique [Tablature]"
V:5 tab stafflines=6 strings=E2,A2,D3,G3,B3,E4 nostems 
V:6 tab stafflines=6 strings=E2,A2,D3,G3,B3,E4 nostems 
V:1
"^Andante." !4!g2 !4!a2 !4!b2 | f6 | !4!g2 !4!a2 !4!b2 | f6 |"^½C9" !4!e'2 !4!d'2"^½C7" !3!c'2 | %5
 b2"_rit."!2!x!0!e!3!f!1!a | g2 x4 | e4 z2!fine! ::[K:G] !2!g(!2!c'!1!b)!0!e"^½C2" f!2!g | !0!e6 | %10
 [GB]!4!e'!1!x!2!c' !3!F!4!a |"^C7" !2![^df]4 !0!B!2!f | g2 a2 !3!b2 | %13
 (!4!d'!2!c')!1!b!4!a!2!g!1!f | e2 !4!f2 x2 | e4 z2!D.C.! :| %16
V:2
!1!x!0!BxB bB |!4!x!0!B !3!AB !2!B,B |!1!x!0!BxB bB |!4!x!0!B !3!AB !2!B,B | e'e d'e c'f | %5
 b!3!g x4 | !3!g!0!e !1!c!2!fx!2!!4![=Ad] | !1!G4 x2 ::[K:G] B4 !3![A^d]2 | %9
x!3!!1![Ac] !2!!1![GB]!3!!1![FA] !1!!0![EG]!3!!1![FA] | x6 |x(!3!B !4!c)!3!B x2 | !3!gB !3!aB bB | %13
 x6 |x[GB]x!3!!1![Ac] B!3!A | G4 x2 :| %16
V:3
 E2 !2!F2 !2!G2 | !1!D6 | E2 !2!F2 !2!G2 | !1!D6 | !3!c2 B2 A2 | !2!B2 c4 | !0!B2 !3!^A2 !1!B,2 | %7
 !2!E2 E,2 z2 ::[K:G] E,4 B,2 | E,6 | E,2 A2 x2 | B,4 z2 | !1!E2 !1!F2 !1!G2 | A,6 | %14
 x2 x2 !2!B,!1!^D | !2!E2 E,2 x2 :| %16
V:4
 !1!G2 !1!A2 !1!B2 | !1!F6 | !1!G2 !1!A2 !1!B2 | !1!F6 | !1!e2 !1!d2 !1!c2 | %5
 !1!B2 !2!x !1!E !3!F !2!A | !3!G2 x4 | !1!E4 x2 ::[K:G] !1!G (!1!c !1!B) !1!E !1!F !1!G | !1!E6 | %10
 [!3!G,!2!B,] !1!e !3!x !1!c x !2!A | !2!F4 !2!B, !1!F | !1!G2 !1!A2 !1!B2 | %13
 (!1!d !1!c) !1!B !2!A !2!G !2!F | !1!E2 !1!F2 x2 | !1!E4 x2 :| %16
V:5
 !5!x !2!B, !2!x !2!B, x !2!B, | !2!x !2!B, !3!A, !2!B, !5!B,, !2!B, | %2
 !5!x !2!B, !2!x !2!B, x !2!B, | !2!x !2!B, !3!A, !2!B, !5!B,, !2!B, | x !3!E x !3!E x !2!F | %5
 x !2!G x4 | x !1!E !2!C !1!F !6!x [!3!=A,!2!D] | !3!G,4 x2 ::[K:G] !2!B,4 [!3!A,!2!^D]2 | %9
 !2!x [!4!A,!3!C] [!4!G,!3!B,] [!4!F,!3!A,] [!4!E,!3!G,] [!4!F,!3!A,] | x6 | %11
 !3!^D (!4!B, !4!C) !4!B, x2 | x !2!B, x !2!B, x !2!B, | x6 | %14
 !2!x [!3!G,!2!B,] !2!x [!3!A,!2!C] !2!B, !3!A, | !3!G,4 x2 :| %16
V:6
 !4!E,2 !4!F,2 !4!G,2 | !4!D,6 | !4!E,2 !4!F,2 !4!G,2 | !4!D,6 | !4!C2 !4!B,2 !4!A,2 | %5
 !4!B,2 !4!C4 | !2!B,2 !3!_B,2 !5!B,,2 | !4!E,2 !6!E,,2 x2 ::[K:G] !6!E,,4 !5!B,,2 | !6!E,,6 | %10
 !6!E,,2 !4!A,2 !5!F,2 | !6!B,,6 | !4!E,2 !4!F,2 !4!G,2 | !5!A,,6 | x2 x2 !5!B,, !4!^D, | %15
 !4!E,2 !6!E,,2 x2 :| %16

